svgs/duotone/jar.svg

<svg xmlns="http://www.w3.org/2000/svg" viewBox="0 0 320 512"><!--! Font Awesome Pro 6.6.0 by @fontawesome - https://fontawesome.com License - https://fontawesome.com/license (Commercial License) Copyright 2024 Fonticons, Inc. --><defs><style>.fa-secondary{opacity:.4}</style></defs><path class="fa-secondary" d="M0 128L0 448c0 35.3 28.7 64 64 64l192 0c35.3 0 64-28.7 64-64l0-320c0-35.3-28.7-64-64-64L64 64C28.7 64 0 92.7 0 128zm64 96c0-17.7 14.3-32 32-32l128 0c17.7 0 32 14.3 32 32l0 128c0 17.7-14.3 32-32 32L96 384c-17.7 0-32-14.3-32-32l0-128z"/><path class="fa-primary" d="M64 0C46.3 0 32 14.3 32 32s14.3 32 32 32l192 0c17.7 0 32-14.3 32-32s-14.3-32-32-32L64 0zM96 192c-17.7 0-32 14.3-32 32l0 128c0 17.7 14.3 32 32 32l128 0c17.7 0 32-14.3 32-32l0-128c0-17.7-14.3-32-32-32L96 192z"/></svg>

<svg xmlns="http://www.w3.org/2000/svg" viewBox="0 0 320 512"><!--! Font Awesome Pro 6.5.2 by @fontawesome - https://fontawesome.com License - https://fontawesome.com/license (Commercial License) Copyright 2024 Fonticons, Inc. --><defs><style>.fa-secondary{opacity:.4}</style></defs><path class="fa-secondary" d="M64 64C28.7 64 0 92.7 0 128V448c0 35.3 28.7 64 64 64H256c35.3 0 64-28.7 64-64V128c0-35.3-28.7-64-64-64H64zM96 192H224c17.7 0 32 14.3 32 32V352c0 17.7-14.3 32-32 32H96c-17.7 0-32-14.3-32-32V224c0-17.7 14.3-32 32-32z"/><path class="fa-primary" d="M64 0C46.3 0 32 14.3 32 32s14.3 32 32 32H256c17.7 0 32-14.3 32-32s-14.3-32-32-32H64zM96 192c-17.7 0-32 14.3-32 32V352c0 17.7 14.3 32 32 32H224c17.7 0 32-14.3 32-32V224c0-17.7-14.3-32-32-32H96z"/></svg>
